PortableApps/LibreOfficePortable/App/libreoffice/help/media/icon-themes/cmd/sc_statisticsmenu.svg

<svg viewBox="0 0 16 16" xmlns="http://www.w3.org/2000/svg"><path d="m1.5 0c-.277 0-.5.223-.5.5v13.5h-.5c-.277 0-.5.223-.5.5s.223.5.5.5h.5v.5c0 .277.223.5.5.5s.5-.223.5-.5v-.5h2 3 1 2 1 3 1.5c.277 0 .5-.223.5-.5s-.223-.5-.5-.5h-.5v-5.5c0-.554-.446-1-1-1h-3v-2c0-.554-.446-1-1-1h-2c-.554 0-1 .446-1 1v4h-3c-.554 0-1 .446-1 1v3.5h-1v-13.5c0-.277-.223-.5-.5-.5zm9.5 8.5h3v5.5h-3zm-7 2h3v3.5h-3z" fill="#808080"/><path d="m11 8.5v5.5h3v-5.5zm-7 2v3.5h3v-3.5z" fill="#fff"/><path d="m3.5 6.5 6-4.5055083 4 3" fill="none" stroke="#76a797" stroke-linecap="round" stroke-linejoin="round"/></svg>

<svg viewBox="0 0 16 16" xmlns="http://www.w3.org/2000/svg">
  <path
     d="M 1.5,0 C 1.223,0 1,0.223 1,0.5 V 14 H 0.5 C 0.223,14 0,14.223 0,14.5 0,14.777 0.223,15 0.5,15 H 1 v 0.5 C 1,15.777 1.223,16 1.5,16 1.777,16 2,15.777 2,15.5 V 15 h 2 3 1 2 1 3 1.5 C 15.777,15 16,14.777 16,14.5 16,14.223 15.777,14 15.5,14 H 15 V 8.5 c 0,-0.554 -0.446,-1 -1,-1 h -3 v -2 c 0,-0.554 -0.446,-1 -1,-1 H 8 c -0.554,0 -1,0.446 -1,1 v 4 H 4 c -0.554,0 -1,0.446 -1,1 V 14 H 2 V 0.5 C 2,0.223 1.777,0 1.5,0 Z M 11,8.5 h 3 V 14 h -3 z m -7,2 H 7 V 14 H 4 Z"
     style="fill:#808080"
    />
  <path
     d="M 11,8.5 V 14 h 3 V 8.5 Z m -7,2 V 14 h 3 v -3.5 z"
     style="fill:#ffffff" />
  <path
     style="fill:none;stroke:#76a797;stroke-linecap:round;stroke-linejoin:round"
     d="m 3.5,6.5 6,-4.5055083 4,3" />
</svg>
